omega/mobile/images/sports/nav-nostream.svg

<svg height=".833406in" viewBox="0 0 100 100" width=".833406in" xmlns="http://www.w3.org/2000/svg"><path d="m6.02 74.77c-1.47-2.4-1.02-9.72-1.02-12.77v-32c.18-9.4 5.15-8.99 13-9h44c5.72-.01 7.55.22 11.91-4.06 2.84-2.78 7.21-9.9 11.94-8.28 2.03.69 2.67 2.41 1.99 4.36-1.18 3.36-10.31 11.76-11.7 14.4-.4 1.61-.15 4.77 0 6.58v31c-.15 3.19.15 7.09-1.88 9.77-2.73 3.62-7.23 3.22-11.26 3.23h-30c-6.87.13-8.21 2.13-12.83 6.98-2.32 2.44-5.83 6.42-9.72 4.44-4.91-2.49 3.55-9.77 5.55-11.42-3.52-.03-7.86.24-9.98-3.23zm15.98-46.77c-3.01.02-7.07-.25-9.11 2.43-1.72 2.27-1.01 5.89-.77 8.57v19c-.15 2.59-.81 7.63 0 9.77 1.08 1.57 2.29 2.33 3.93 2.8 6.47 1.86 13.2-4.57 16.35-9.57 2.71-4.28 1.8-17.05.6-22 2.51 1.46 9.06 6.54 11 6.83 2.85.43 5.13-2.02 6.96-3.85 2.65-2.63 9.88-10.96 12.04-13.98zm73 11v26c-.05 2.56 0 7.37-4.06 5.83-3.39-1.28-9.25-8.35-10.36-11.83-.84-2.53-.87-13.52 0-16 1.51-4.21 6.67-9.48 10.37-11.83 5.05-.51 4.04 3.95 4.05 7.83zm-40.01 9s-20.99 23-20.99 23h25c2.56-.04 5.5.02 7.57-1.74 2.84-2.41 2.42-6.89 2.43-10.26v-25s-14.01 14-14.01 14z" fill="#fff"/></svg>

<?xml version="1.0" encoding="UTF-8" standalone="no"?>
<!DOCTYPE svg PUBLIC "-//W3C//DTD SVG 20010904//EN"
              "http://www.w3.org/TR/2001/REC-SVG-20010904/DTD/svg10.dtd">

<svg xmlns="http://www.w3.org/2000/svg"
     width="0.833406in" height="0.833406in"
     viewBox="0 0 100 100">
  <path id="Selection"
        fill="white"
        d="M 6.02,74.77
           C 4.55,72.37 5.00,65.05 5.00,62.00
             5.00,62.00 5.00,30.00 5.00,30.00
             5.18,20.60 10.15,21.01 18.00,21.00
             18.00,21.00 62.00,21.00 62.00,21.00
             67.72,20.99 69.55,21.22 73.91,16.94
             76.75,14.16 81.12,7.04 85.85,8.66
             87.88,9.35 88.52,11.07 87.84,13.02
             86.66,16.38 77.53,24.78 76.14,27.42
             75.74,29.03 75.99,32.19 76.14,34.00
             76.14,34.00 76.14,65.00 76.14,65.00
             75.99,68.19 76.29,72.09 74.26,74.77
             71.53,78.39 67.03,77.99 63.00,78.00
             63.00,78.00 33.00,78.00 33.00,78.00
             26.13,78.13 24.79,80.13 20.17,84.98
             17.85,87.42 14.34,91.40 10.45,89.42
             5.54,86.93 14.00,79.65 16.00,78.00
             12.48,77.97 8.14,78.24 6.02,74.77 Z
           M 22.00,28.00
           C 18.99,28.02 14.93,27.75 12.89,30.43
             11.17,32.70 11.88,36.32 12.12,39.00
             12.12,39.00 12.12,58.00 12.12,58.00
             11.97,60.59 11.31,65.63 12.12,67.77
             13.20,69.34 14.41,70.10 16.05,70.57
             22.52,72.43 29.25,66.00 32.40,61.00
             35.11,56.72 34.20,43.95 33.00,39.00
             35.51,40.46 42.06,45.54 44.00,45.83
             46.85,46.26 49.13,43.81 50.96,41.98
             53.61,39.35 60.84,31.02 63.00,28.00
             63.00,28.00 22.00,28.00 22.00,28.00 Z
           M 95.00,39.00
           C 95.00,39.00 95.00,65.00 95.00,65.00
             94.95,67.56 95.00,72.37 90.94,70.83
             87.55,69.55 81.69,62.48 80.58,59.00
             79.74,56.47 79.71,45.48 80.58,43.00
             82.09,38.79 87.25,33.52 90.95,31.17
             96.00,30.66 94.99,35.12 95.00,39.00 Z
           M 54.99,48.00
           C 54.99,48.00 34.00,71.00 34.00,71.00
             34.00,71.00 59.00,71.00 59.00,71.00
             61.56,70.96 64.50,71.02 66.57,69.26
             69.41,66.85 68.99,62.37 69.00,59.00
             69.00,59.00 69.00,34.00 69.00,34.00
             69.00,34.00 54.99,48.00 54.99,48.00 Z" />
</svg>
